www/assets/icons/checklist.svg

<svg width="24" height="24" viewBox="0 0 24 24" xmlns="http://www.w3.org/2000/svg" fill='currentColor'><path d="M22 7.53497H13V9.53497H22V7.53497ZM22 15.535H13V17.535H22V15.535ZM5.54 11.535L2 7.99497L3.41 6.58497L5.53 8.70497L9.77 4.46497L11.18 5.87497L5.54 11.535ZM5.54 19.535L2 15.995L3.41 14.585L5.53 16.705L9.77 12.465L11.18 13.875L5.54 19.535Z"/></svg>

<svg xmlns="http://www.w3.org/2000/svg" width="24" height="24" viewBox="0 0 24 24" fill='currentColor'><path d="M22 7.535h-9v2h9zm0 8h-9v2h9zm-16.46-4L2 7.995l1.41-1.41 2.12 2.12 4.24-4.24 1.41 1.41zm0 8L2 15.995l1.41-1.41 2.12 2.12 4.24-4.24 1.41 1.41z"/></svg>
